!!!COM: Mozart, Wolfgang Amadeus
!!!OTL: Musikalische Würfelspiele, Kontre-Tänze
!!!SCA: K<sup>6</sup> Anh. C30.01 (K<sup>3</sup> Anh. 294d)
**kern	**kern
*staff2	*staff2
*clefF4	*clefG2
*M2/4	*M2/4
*MM110	*MM110
*>[A,A1,A,A2,B]	*>[A,A1,A,A2,B]
*>norep[A,A2,B]	*>norep[A,A2,B]
*>A	*>A
=165	=165
4C	8cc
.	16ee
.	16cc
4r	8g
.	8g
=68	=68
4C	8gg
.	16gg
.	16ee
4r	8cc
.	16cc
.	16ee
=90	=90
8G	8dd
16GG	8b
16AA	.
16BB	8g
16AA	.
16BB	8b
16GG	.
=12	=12
4C	16cc
.	16b
.	16cc
.	16dd
4r	8cc
.	8cc
=43	=43
4D	16dd
.	16cc#
.	16dd
.	16ee
4C 4D	16ff#
.	16gg
.	16aa
.	16ff#
=140	=140
16D	8gg
16B	.
16G	4dd
16B	.
16D	.
16B	.
16G	8b
16B	.
=73	=73
4C	8ee
.	8gg
4D	8ff#
.	8aa
=172	=172
*>A1	*>A1
4GG	4g 4b 4gg
16G	4r
16F	.
16E	.
16D	.
=172:|!	=172:|!
*>A2	*>A2
4GG	4g 4b 4gg
16GG	4r
16AA	.
16BB	.
16C#	.
=144||	=144||
*>B	*>B
4D	8d
.	16f#
.	16a
4D	8dd
.	8ff#
=91	=91
16BB	4gg
16D	.
16G	.
16D	.
16BB	8bb
16GG	.
16AA	8r
16BB	.
=38	=38
8C	16cc
.	16ccc
8r	16gg
.	16ee
8C	16cc
.	16gg
8r	16ee
.	16cc
=126	=126
4GG	8b
.	8dd
16G	4g
16F	.
16E	.
16D	.
=134	=134
4C	16cc
.	16ee
.	16gg
.	16ee
4r	16cc
.	16g
.	16cc
.	16ee
=80	=80
4C	8cc
.	8ee
4r	8ee
.	8ee
=129	=129
4G	8ff
.	8dd
4GG	8b
.	8g
=98	=98
4C	4cc
4CC	4c
==	==
*-	*-
